48x48/apps/deepin-music-player.svg

<svg xmlns="http://www.w3.org/2000/svg" width="48" height="48" version="1">
 <circle style="fill:#e65a2f" cx="24" cy="24" r="20"/>
 <rect opacity=".2" width="30" height="30" x="-40" y="-39" rx="15" ry="15" transform="matrix(0,-1,-1,0,0,0)"/>
 <rect style="fill:#ff9907" width="30" height="30" x="-39" y="-39" rx="15" ry="15" transform="matrix(0,-1,-1,0,0,0)"/>
 <path fill="#fff" opacity=".1" d="m24 9c-8.31 0-15 6.69-15 15 0 0.18089 0.0209 0.35639 0.0272 0.53571 0.28258-8.0578 6.8437-14.464 14.973-14.464 8.1291 0 14.69 6.4065 14.973 14.464 0.006-0.17932 0.0272-0.35482 0.0272-0.53571 0-8.31-6.69-15-15-15z"/>
 <g opacity=".2" style="enable-background:new" transform="translate(-469 -165)">
  <path d="m489 183v8.1875c-0.32-0.12-0.64-0.19-1-0.19-1.6568 0-3 1.3432-3 3s1.3432 3 3 3 3-1.3432 3-3v-7h6v4.1875c-0.32-0.12-0.64-0.19-1-0.19-1.6568 0-3 1.3432-3 3s1.3432 3 3 3 3-1.3432 3-3v-11h-1z"/>
 </g>
 <g style="enable-background:new;fill:#f4f4f7" transform="translate(-469 -166)">
  <path style="fill:#f4f4f7" d="m489 183v8.1875c-0.32-0.12-0.64-0.19-1-0.19-1.6568 0-3 1.3432-3 3s1.3432 3 3 3 3-1.3432 3-3v-7h6v4.1875c-0.32-0.12-0.64-0.19-1-0.19-1.6568 0-3 1.3432-3 3s1.3432 3 3 3 3-1.3432 3-3v-11h-1z"/>
 </g>
 <path fill="#fff" style="opacity:0.2" d="m24 4a20 20 0 0 0 -20 20 20 20 0 0 0 0.0215 0.582 20 20 0 0 1 19.978 -19.582 20 20 0 0 1 19.979 19.418 20 20 0 0 0 0.021 -0.418 20 20 0 0 0 -20 -20z"/>
 <path opacity=".2" d="m43.979 24.418a20 20 0 0 1 -19.979 19.582 20 20 0 0 1 -19.978 -19.418 20 20 0 0 0 -0.022 0.418 20 20 0 0 0 20 20 20 20 0 0 0 20 -20 20 20 0 0 0 -0.021 -0.582z"/>
</svg>

<svg xmlns="http://www.w3.org/2000/svg" width="48" height="48" version="1"><circle style="fill:#e65a2f" cx="24" cy="24" r="20"/><rect opacity=".2" width="30" height="30" x="-40" y="-39" rx="15" ry="15" transform="matrix(0 -1 -1 0 0 0)"/><rect style="fill:#ff9907" width="30" height="30" x="-39" y="-39" rx="15" ry="15" transform="matrix(0 -1 -1 0 0 0)"/><path fill="#fff" opacity=".1" d="M24 9C15.69 9 9 15.69 9 24c0 .18.02.356.027.536C9.31 16.478 15.871 10.072 24 10.072c8.13 0 14.69 6.406 14.973 14.464.006-.18.027-.355.027-.536 0-8.31-6.69-15-15-15z"/><path d="M489 183v8.188c-.32-.12-.64-.19-1-.19a3 3 0 1 0 3 3v-7h6v4.187c-.32-.12-.64-.19-1-.19a3 3 0 1 0 3 3v-11h-1z" transform="translate(-469 -165)" opacity=".2" style="enable-background:new"/><g style="enable-background:new;fill:#f4f4f7"><path style="fill:#f4f4f7" d="M489 183v8.188c-.32-.12-.64-.19-1-.19a3 3 0 1 0 3 3v-7h6v4.187c-.32-.12-.64-.19-1-.19a3 3 0 1 0 3 3v-11h-1z" transform="translate(-469 -166)"/></g><path fill="#fff" style="opacity:.2" d="M24 4A20 20 0 0 0 4 24a20 20 0 0 0 .021.582A20 20 0 0 1 24 5a20 20 0 0 1 19.979 19.418 20 20 0 0 0 .02-.418A20 20 0 0 0 24 4z"/><path opacity=".2" d="M43.979 24.418A20 20 0 0 1 24 44 20 20 0 0 1 4.022 24.582 20 20 0 0 0 4 25a20 20 0 0 0 20 20 20 20 0 0 0 20-20 20 20 0 0 0-.021-.582z"/></svg>
